storage/app/icons/phosphoricons/duotone/coin-duotone.svg

<svg xmlns="http://www.w3.org/2000/svg" fill="currentColor" viewBox="0 0 256 256"><path d="M232 104c0 24-40 48-104 48S24 128 24 104s40-48 104-48 104 24 104 48" opacity=".2"/><path d="M207.58 63.84C186.85 53.48 159.33 48 128 48s-58.85 5.48-79.58 15.84S16 88.78 16 104v48c0 15.22 11.82 29.85 32.42 40.16S96.67 208 128 208s58.85-5.48 79.58-15.84S240 167.22 240 152v-48c0-15.22-11.82-29.85-32.42-40.16M128 64c62.64 0 96 23.23 96 40s-33.36 40-96 40-96-23.23-96-40 33.36-40 96-40m-8 95.86v32c-19-.62-35-3.42-48-7.49v-31.32a203.4 203.4 0 0 0 48 6.81m16 0a203.4 203.4 0 0 0 48-6.81v31.31c-13 4.07-29 6.87-48 7.49ZM32 152v-18.47a83 83 0 0 0 16.42 10.63c2.43 1.21 5 2.35 7.58 3.43V178c-15.83-7.84-24-17.71-24-26m168 26v-30.41c2.61-1.08 5.15-2.22 7.58-3.43A83 83 0 0 0 224 133.53V152c0 8.29-8.17 18.16-24 26"/></svg>

<svg xmlns="http://www.w3.org/2000/svg" viewBox="0 0 256 256" fill="currentColor"><path d="M232,104c0,24-40,48-104,48S24,128,24,104,64,56,128,56,232,80,232,104Z" opacity="0.2"/><path d="M207.58,63.84C186.85,53.48,159.33,48,128,48S69.15,53.48,48.42,63.84,16,88.78,16,104v48c0,15.22,11.82,29.85,32.42,40.16S96.67,208,128,208s58.85-5.48,79.58-15.84S240,167.22,240,152V104C240,88.78,228.18,74.15,207.58,63.84ZM128,64c62.64,0,96,23.23,96,40s-33.36,40-96,40-96-23.23-96-40S65.36,64,128,64Zm-8,95.86v32c-19-.62-35-3.42-48-7.49V153.05A203.43,203.43,0,0,0,120,159.86Zm16,0a203.43,203.43,0,0,0,48-6.81v31.31c-13,4.07-29,6.87-48,7.49ZM32,152V133.53a82.88,82.88,0,0,0,16.42,10.63c2.43,1.21,5,2.35,7.58,3.43V178C40.17,170.16,32,160.29,32,152Zm168,26V147.59c2.61-1.08,5.15-2.22,7.58-3.43A82.88,82.88,0,0,0,224,133.53V152C224,160.29,215.83,170.16,200,178Z"/></svg>
